img/code.svg

<svg width="12" height="12" viewBox="0 0 12 12" fill="none" xmlns="http://www.w3.org/2000/svg">
<circle cx="5.93214" cy="5.95704" r="5.64112" fill="#202430"/>
<path d="M3.08428 6.07099L4.12895 7.11566C4.15304 7.1406 4.18186 7.1605 4.21372 7.17419C4.24559 7.18787 4.27986 7.19508 4.31453 7.19538C4.34921 7.19568 4.3836 7.18907 4.4157 7.17594C4.44779 7.16281 4.47695 7.14342 4.50148 7.1189C4.526 7.09437 4.54539 7.06521 4.55852 7.03312C4.57165 7.00102 4.57826 6.96663 4.57796 6.93195C4.57766 6.89728 4.57045 6.863 4.55677 6.83114C4.54308 6.79928 4.52318 6.77046 4.49824 6.74637L3.63821 5.88634L4.49824 5.02632C4.52318 5.00223 4.54308 4.97341 4.55677 4.94155C4.57045 4.90968 4.57766 4.87541 4.57796 4.84073C4.57826 4.80606 4.57165 4.77167 4.55852 4.73957C4.54539 4.70747 4.526 4.67831 4.50148 4.65379C4.47695 4.62927 4.44779 4.60988 4.4157 4.59675C4.3836 4.58361 4.34921 4.57701 4.31453 4.57731C4.27986 4.57761 4.24559 4.58481 4.21372 4.5985C4.18186 4.61219 4.15304 4.63209 4.12895 4.65703L3.08428 5.7017C3.03532 5.75067 3.00781 5.81709 3.00781 5.88634C3.00781 5.9556 3.03532 6.02201 3.08428 6.07099ZM7.63225 4.65703C7.60815 4.63209 7.57934 4.61219 7.54747 4.5985C7.51561 4.58481 7.48134 4.57761 7.44666 4.57731C7.41198 4.57701 7.37759 4.58361 7.3455 4.59675C7.3134 4.60988 7.28424 4.62927 7.25972 4.65379C7.2352 4.67831 7.2158 4.70747 7.20267 4.73957C7.18954 4.77167 7.18293 4.80606 7.18323 4.84073C7.18354 4.87541 7.19074 4.90968 7.20443 4.94155C7.21812 4.97341 7.23801 5.00223 7.26296 5.02632L8.12298 5.88634L7.26296 6.74637C7.23801 6.77046 7.21812 6.79928 7.20443 6.83114C7.19074 6.863 7.18354 6.89728 7.18323 6.93195C7.18293 6.96663 7.18954 7.00102 7.20267 7.03312C7.2158 7.06521 7.2352 7.09437 7.25972 7.1189C7.28424 7.14342 7.3134 7.16281 7.3455 7.17594C7.37759 7.18907 7.41198 7.19568 7.44666 7.19538C7.48134 7.19508 7.51561 7.18787 7.54747 7.17419C7.57934 7.1605 7.60815 7.1406 7.63225 7.11566L8.67692 6.07099C8.72588 6.02201 8.75338 5.9556 8.75338 5.88634C8.75338 5.81709 8.72588 5.75067 8.67692 5.7017L7.63225 4.65703ZM6.15195 3.98661L5.10728 7.64296C5.08826 7.70952 5.09645 7.78091 5.13005 7.84144C5.16364 7.90197 5.21989 7.94668 5.28644 7.96576C5.30984 7.97222 5.33399 7.97556 5.35826 7.97568C5.41502 7.97564 5.47021 7.95711 5.5155 7.9229C5.56078 7.88869 5.59369 7.84066 5.60924 7.78607L6.65391 4.12973C6.6648 4.09634 6.66884 4.0611 6.6658 4.02611C6.66275 3.99112 6.65268 3.95711 6.63618 3.9261C6.61969 3.8951 6.59711 3.86774 6.5698 3.84566C6.54248 3.82358 6.511 3.80724 6.47722 3.79761C6.44345 3.78798 6.40808 3.78526 6.37323 3.78961C6.33838 3.79397 6.30477 3.80531 6.2744 3.82295C6.24404 3.8406 6.21754 3.86418 6.1965 3.89231C6.17546 3.92043 6.16031 3.9525 6.15195 3.98661Z" fill="#00FFFF"/>
</svg>

<svg width="12" height="12" fill="none" xmlns="http://www.w3.org/2000/svg"><circle cx="5.932" cy="5.957" r="5.641" fill="#202430"/><path d="M3.084 6.071 4.13 7.116a.261.261 0 1 0 .37-.37l-.86-.86.86-.86a.261.261 0 1 0-.37-.369L3.084 5.702a.261.261 0 0 0 0 .369Zm4.548-1.414a.261.261 0 1 0-.369.37l.86.86-.86.86a.261.261 0 1 0 .37.369L8.676 6.07a.261.261 0 0 0 0-.37L7.632 4.658Zm-1.48-.67L5.107 7.643a.261.261 0 1 0 .502.143L6.654 4.13a.261.261 0 1 0-.502-.143Z" fill="#0FF"/></svg>
